X: 1270
T: Kul Oldum Bir Cefâ-kâre
C: İbrahim Ağa
O: Turkey
F: http://compmusic.upf.edu/node/140
N: hicaz-humayun--agirsemai--aksaksemai--kul_oldum--ibrahim_aga
N: makam= hicaz-humayun
N: form= agirsemai
N: usul= aksaksemai = 10/8
M: 10/8
L: 1/16
K: C _7/8B ^c  
Q: 1/4=108
%%MIDI tuningsystem comma53
e4 d2e2 efed cBA4Bc  | d4 f2ed dccB {c}BAB4Ac  | 
w:  Ah  kul_ ol *  *  dum  *  *  *  bir   |  *  ce fâ *  *  *  kâ *  *  *  *  re   | 
B4 d2e3fed cBA4Bc  | d4 f2ed dccB {c}BAB3/2A/ G2z2  | 
w:  *  ci han  *  bâ *  *  *  ğın  |  *  da  gül *  *  *  fem *  *  *  *  dir    | 
ABc2 BAA4fe dcd4z2  | e4 cde2 efdg feed cdce  | 
w:  vay  *  *  *  *  *  câ *  *  *  nım    |  Ah  câ *  nım  *  *  yâ *  le  *  lel   | 
d4 cdef eddg feed dcd2  | _1/4Bcdc dcd3cdg fedc _7/8B2cd  | 
w:  *  le  le  lel  *  *  *  lel  *  li  *  vay   |  te  re  li  *  ye  le  lel  le  lel  *  *  le  lâl_  | 
cdcd c2dc B2dc BAB4z2  | e4 d2e3fed cBA4Bc  | 
w:  i  *  *  *  *  *  *  *  öm *  *  *  rüm    |  Ah  ci han  *  ba *  *  *  ğın  | 
d4 f2ed dccB {c}BAB3/2A/ G2z2  | ABc2 BAA4fe dcd4z2  | 
w:  *  da  gül *  *  *  fem *  *  *  *  dir    |  vay  *  *  *  *  *  câ *  *  *  nım   | 
e4 d2e2 efed cBA4Bc  | d4 f2ed dccB {c}BAB4Ac  | 
w:  Ah  kul_ ol *  *  dum  *  *  *  bir   |  *  ce fâ *  *  *  kâ *  *  *  *  re   | 
B4 d2e3fed cBA4Bc  | d4 f2ed dccB {c}BAB3/2A/ G2z2  | 
w:  *  ci han  *  bâ *  *  *  ğın  |  *  da  gül *  *  *  fem *  *  *  *  dir    | 
ABc2 BAA4fe dcd4z2  | e4 cde2 efdg feed cdce  | 
w:  vay  *  *  *  *  *  câ *  *  *  nım    |  Ah  câ *  nım  *  *  yâ *  le  *  lel   | 
d4 cdef eddg feed dcd2  | _1/4Bcdc dcd3cdg fedc _7/8B2cd  | 
w:  *  le  le  lel  *  *  *  lel  *  li  *  vay   |  te  re  li  *  ye  le  lel  le  lel  *  *  le  lâl_  | 
cdcd c2dc B2dc BAB4z2  | e4 d2e3fed cBA4Bc  | 
w:  i  *  *  *  *  *  *  *  öm *  *  *  rüm    |  Ah  ci han  *  ba *  *  *  ğın  | 
d4 f2ed dccB {c}BAB3/2A/ G2z2  | ABc2 BAA4g^f ^3/4egf4z2  | 
w:  *  da  gül *  *  *  fem *  *  *  *  dir    |  vay  *  *  *  *  *  câ *  *  *  nım   | 
^f4 ^3/4e2f4a3/2_1/4b/ a^gfe f=gfe  | \
w:  Ah  gö nül  sev *  *  *  di   | 
^f4 d2^3/4e4eg feed dcc_1/4B  | 
w:  *  o  şeh nâ *  *  *  zı   | 
_1/4B4 c2d4^3/4e3^fd4eg  | ^f4 aggf f^3/4eed dcd3/2c/ _1/4B2z2  | 
w:  *  tü ken mez  *  iş  |  *  ve  *  vü  *  *  *  nâ *  *  *  zı   | 
_1/4B3d cBA4fe dcd4z2  | e4 cde2 efdg feed cdce  | 
w:  vay  *  *  *  *  câ *  *  *  nım   |  Ah  câ *  nım   *  *  yâ  *  le  *  lel   | 
d4 cdef eddg feed dcd2  | _1/4Bcdc dcd3cdg fedc _7/8B2cd  | 
w:  *  le  le  lel  *  *  *  lel  *  li  *  vay   |  te  re  li  *  ye  le  lel  le  lel  *  *  le  lâl_  | 
cdcd c2dc B2dc BAB4z2  | e4 d2e3fed cBA4Bc  | 
w:  i  *  *  *  *  *  *  *  öm *  *  *  rüm    |  *  tü ken *  mez  *  *  *  iş  | 
d4 f2ed dccB {c}BAB3/2A/ G2z2  | ABc2 BAA4fe dcd4z2  | 
w:  *  ve  vü  *  *  *  nâ *  *  *  *  zı    |  vay  *  *  *  *  *  câ *  *  *  nım   | 
e4 d2e2 efed cBA4Bc  | d4 f2ed dccB {c}BAB4Ac  | 
w:  SAZ Gü zel *  *  le *  *  *  rin   |  *  ser_ ef *  *  *  râ *  *  *  *  zı   | 
B4 d2e3fed cBA4Bc  | d4 f2ed dccB {c}BAB3/2A/ G2z2  | 
w:  *  e ren  *  vas *  *  *  lı  |  *  na  hur *  *  *  rem *  *  *  *  dir    | 
ABc2 BAA4fe dcd4z2  | e4 cde2 efdg feed cdce  | 
w:  vay  *  *  *  *  *  câ *  *  *  nım    |  Ah  câ *  nım   *  *  yâ  *  le  *  lel   | 
d4 cdef eddg feed dcd2  | _1/4Bcdc dcd3cdg fedc _7/8B2cd  | 
w:  *  le  le  lel  *  *  *  lel  *  li  *  vay   |  te  re  li  *  ye  le  lel  le  lel  *  *  le  lâl_  | 
cdcd c2dc B2dc BAB4z2  | e4 d2e3fed cBA4Bc  | 
w:  i  *  *  *  *  *  *  *  öm *  *  *  rüm    |  *  tü ken *  mez  *  *  *  iş  | 
d4 f2ed dccB {c}BAB3/2A/ G2z2  | ABc2 BAA4|
w:  *  ve  vü  *  *  *  nâ *  *  *  *  zı    |  vay   | 


